teeny/outline/calendar.svg

<svg width="15" height="15" viewBox="0 0 15 15" fill="none" xmlns="http://www.w3.org/2000/svg">
<path d="M3.5 0V5M11.5 0V5M1.5 2.5H13.5C14.0523 2.5 14.5 2.94772 14.5 3.5V13.5C14.5 14.0523 14.0523 14.5 13.5 14.5H1.5C0.947716 14.5 0.5 14.0523 0.5 13.5V3.5C0.5 2.94772 0.947715 2.5 1.5 2.5Z" stroke="black"/>
</svg>

<svg viewBox="0 0 15 15" xmlns="http://www.w3.org/2000/svg"><path fill="none" stroke="#000" d="M3.5 0v5m8-5v5m-10-2.5h12c.55 0 1 .44 1 1v10c0 .55-.45 1-1 1h-12c-.56 0-1-.45-1-1v-10c0-.56.44-1 1-1Z"/></svg>
